media/img/products/vpn/resource-center/icons/android_icon.svg

<svg width="53" height="30" viewBox="0 0 53 30" fill="none" xmlns="http://www.w3.org/2000/svg">
<path d="M38.6497 21.9714C37.4575 21.9714 36.4877 21.0009 36.4877 19.8087C36.4877 18.6164 37.4575 17.6467 38.6497 17.6467C39.8419 17.6467 40.8117 18.6164 40.8117 19.8087C40.8117 21.0009 39.8419 21.9714 38.6497 21.9714ZM14.7519 21.9714C13.5597 21.9714 12.5899 21.0009 12.5899 19.8087C12.5899 18.6164 13.5597 17.6467 14.7519 17.6467C15.9441 17.6467 16.9139 18.6164 16.9139 19.8087C16.9139 21.0009 15.9441 21.9714 14.7519 21.9714ZM39.4251 8.94744L43.7463 1.46359C43.994 1.03343 43.8466 0.483989 43.4172 0.235579C42.9877 -0.0121283 42.4376 0.135233 42.1892 0.564685L37.8139 8.14326C34.4681 6.61632 30.7104 5.76584 26.7008 5.76584C22.6912 5.76584 18.9335 6.61632 15.5876 8.14326L11.2124 0.564685C10.964 0.135233 10.4139 -0.0121283 9.98442 0.235579C9.55497 0.483989 9.4069 1.03343 9.65531 1.46359L13.9765 8.94744C6.55651 12.983 1.48167 20.4949 0.739258 29.3696H52.6623C51.9192 20.4949 46.8444 12.983 39.4251 8.94744Z" fill="black"/>
</svg>

<svg width="53" height="30" fill="none" xmlns="http://www.w3.org/2000/svg"><path d="M38.65 21.971a2.165 2.165 0 0 1-2.162-2.162c0-1.193.97-2.162 2.162-2.162s2.162.97 2.162 2.162-.97 2.162-2.162 2.162Zm-23.898 0a2.165 2.165 0 0 1-2.162-2.162c0-1.193.97-2.162 2.162-2.162s2.162.97 2.162 2.162-.97 2.162-2.162 2.162ZM39.425 8.947l4.321-7.483a.9.9 0 0 0-1.557-.9l-4.375 7.58C34.468 6.615 30.71 5.765 26.7 5.765c-4.01 0-7.768.85-11.113 2.377L11.212.565a.9.9 0 0 0-1.557.899l4.322 7.483C6.556 12.983 1.482 20.495.739 29.37h51.923c-.743-8.875-5.818-16.387-13.237-20.423Z" fill="#000"/></svg>
